X:1
T: Gold for the Mahieus
N:
C:3 times
S:tune: Spagnolette Reformeert
A:
O:
R:
M:4/4
K:D
I:speed 210
%W: A
% voice 1 (1 lines, 19 notes)
K:D
M:4/4
L:1/16
d2 e2 |f4 f4 e4 d4 |c6 d2 e4 A4 |f4 f4 e4 d4 |e4 c4 d4 d2 e2 |
%W:
% voice 1 (1 lines, 16 notes)
f4 f4 e4 d4 |c6 d2 e4 A4 |B2 c2 d4 d6 c2 |d12 d2 e2 |
%W:
% voice 1 (1 lines, 17 notes)
f4 f4 e4 d4 |c6 d2 e4 A4 |f4 f4 e4 d4 |e4 c4 d4 d2 e2 |
%W:
% voice 1 (1 lines, 14 notes)
f4 f4 e4 d4 |c6 d2 e4 A4 |B2 c2 d4 d6 c2 |d12 ||
%W: B
% voice 1 (1 lines, 19 notes)
B2 c2 |d4 d4 d4 c2 B2 |A4 A4 A8 |B4 B4 B4 A2 G2 |F4 F4 F6 E2 |
%W:
% voice 1 (1 lines, 19 notes)
D4 D2 E2 F4 F2 G2 |A4 A2 B2 c4 A4 |B2 c2 d4 d6 c2 |d12 B2 c2 |
%W:
% voice 1 (1 lines, 17 notes)
d4 d4 d4 c2 B2 |A4 A4 A8 |B4 B4 B4 A2 G2 |F4 F4 F6 E2 |
%W:
% voice 1 (1 lines, 17 notes)
D4 D2 E2 F4 F2 G2 |A4 A2 B2 c4 A4 |B2 c2 d4 d6 c2 |d12 ||
